
% #
input ../def;
beginchar(35, 22);
    x1 := 11.0 * ux;
    y1 := 43.0 * uy;
    x2 := 4.0 * ux;
    y2 := 11.0 * uy;
    x3 := 17.0 * ux;
    y3 := 43.0 * uy;
    x4 := 10.0 * ux;
    y4 := 11.0 * uy;
    x5 := 4.0 * ux;
    y5 := 30.0 * uy;
    x6 := 18.0 * ux;
    y6 := 30.0 * uy;
    x7 := 3.0 * ux;
    y7 := 24.0 * uy;
    x8 := 17.0 * ux;
    y8 := 24.0 * uy; 
    draw z1 -- z2; 
draw z3 -- z4; 
draw z5 -- z6; 
draw z7 -- z8; 

endchar(8);
end;
