
% /
input ../def;
beginchar(47, 24);
    x1 := 20.0 * ux;
    y1 := 43.0 * uy;
    x2 := 2.0 * ux;
    y2 := 11.0 * uy;
    x3 := 3.0 * ux;
    y3 := 11.0 * uy;
    x4 := 20.0 * ux;
    y4 := 43.0 * uy;
    x5 := 21.0 * ux;
    y5 := 43.0 * uy;
    x6 := 3.0 * ux;
    y6 := 11.0 * uy; 
    draw z1 -- z2 -- z3; 
draw z4 -- z5 -- z6; 

endchar(6);
end;
