
% ]
input ../def;
beginchar(93, 14);
    x1 := 9.0 * ux;
    y1 := 43.0 * uy;
    x2 := 9.0 * ux;
    y2 := 11.0 * uy;
    x3 := 10.0 * ux;
    y3 := 43.0 * uy;
    x4 := 10.0 * ux;
    y4 := 11.0 * uy;
    x5 := 3.0 * ux;
    y5 := 43.0 * uy;
    x6 := 10.0 * ux;
    y6 := 43.0 * uy;
    x7 := 3.0 * ux;
    y7 := 11.0 * uy;
    x8 := 10.0 * ux;
    y8 := 11.0 * uy; 
    draw z1 -- z2; 
draw z3 -- z4; 
draw z5 -- z6; 
draw z7 -- z8; 

endchar(8);
end;
